symbols/web/videocam_off/materialsymbolsrounded/videocam_off_grad200fill1_20px.svg

<svg xmlns="http://www.w3.org/2000/svg" height="20" width="20"><path d="M16.979 20 .229 3.271q-.333-.333-.333-.792 0-.458.354-.812.333-.334.792-.334.458 0 .812.334l16.729 16.75q.334.333.334.791 0 .459-.334.792-.354.354-.812.354-.459 0-.792-.354Zm-1.646-7.375L5.417 2.708h7.625q.958 0 1.625.667.666.667.666 1.625v3.25l2.959-2.958q.291-.292.646-.125.354.166.354.521v8.5q0 .354-.354.52-.355.167-.646-.125l-2.959-2.958ZM2.917 2.729l12.395 12.417q.021.854-.687 1.5-.708.646-1.563.646H3.042q-.959 0-1.625-.667Q.75 15.958.75 15V5.021q0-.854.635-1.573.636-.719 1.532-.719Z"/></svg>

<svg xmlns="http://www.w3.org/2000/svg" height="20" width="20"><path d="M16.979 20 14.021 17.083Q13.833 17.188 13.573 17.24Q13.312 17.292 13.167 17.292H3.042Q2.083 17.292 1.417 16.625Q0.75 15.958 0.75 15V5.021Q0.75 4.729 0.802 4.458Q0.854 4.188 0.958 4L0.229 3.271Q-0.104 2.938 -0.104 2.479Q-0.104 2.021 0.25 1.667Q0.583 1.333 1.042 1.333Q1.5 1.333 1.854 1.667L18.583 18.417Q18.917 18.75 18.917 19.208Q18.917 19.667 18.583 20Q18.229 20.354 17.771 20.354Q17.312 20.354 16.979 20ZM15.333 12.625 5.417 2.708H13.042Q14 2.708 14.667 3.375Q15.333 4.042 15.333 5V8.25L18.292 5.292Q18.583 5 18.938 5.167Q19.292 5.333 19.292 5.688V14.188Q19.292 14.542 18.938 14.708Q18.583 14.875 18.292 14.583L15.333 11.625Z"/></svg>
